X: 15
T: O, który siedzisz na wysokim niebie,
C: Mikołaj Gomółka
%%abc-version 2.0
%%abcx-abcm2ps-target-version 5.9.1 (29 Sep 2008)
%%abc-creator hum2abc beta
%%abcx-conversion-date 2021/10/04 07:59:09
%%abc-edited-by Leszek Kubiak
%%abcx-initial-encoding-date data 2020-02-04
%%humdrum-veritas 2119530264
%%humdrum-veritas-data 534424095
%%linebreak <none>
%%barnumbers 0
L: 1/4
M: C|
N: Derived from pl-wn--sd-xvi-qu-273--016_gomolka-mikolaj--o-ktory-siedzisz-na-wysokim-niebie.krn
%%staves [1 2 3 4]
V: 1 clef=treble
V: 2
V: 3 clef=alto
V: 4
K: F
[V:1] G4B2c2 [|] 
[V:2] D4GFGA [|] 
[V:3] B,4_E2E2 [|] 
[V:4] G,4_E,2C,2 [|] 
[V:1] d2>c2def2 [|] 
[V:2] B4B2A2 [|] 
[V:3] D2G4F4 [|] 
[V:4] G,F,G,A,B,CD2 [|] 
[V:1] d2g4f2 [|] 
[V:2] B2G2cBAG [|] 
[V:3] E4D4 [|] 
[V:4] B,2C4D2 [|] 
[V:1] e4e4 [|] 
[V:2] A4AGA/G/F/E/ [|] 
[V:3] C=B,^CD2^C [|] 
[V:4] A,4A,,4 [|] 
[V:1] d2d2f2f2 [|] 
[V:2] ^F2A2B2d2 [|] 
[V:3] D2F2F2D2 [|] 
[V:4] D,2D2B,2B,2 [|] 
[V:1] _e4d3c [|] 
[V:2] c2>B2AGA2 [|] 
[V:3] G4F3_E [|] 
[V:4] C4D2D,2 [|] 
[V:1] B2edcBB4 [|] 
[V:2] G2BAGFG2 [|] 
[V:3] DCB,2_E3D [|] 
[V:4] G,2G,2_E,4 [|] 
[V:1] A2B2B2 [|] 
[V:2] F2>_E2D2F2 [|] 
[V:3] CB,C2B,2D2 [|] 
[V:4] F,4B,,2B,,2 [|] 
[V:1] B2c2A4 [|] 
[V:2] G3F/_E/FG2F [|] 
[V:3] _E2E2D3C [|] 
[V:4] E,2C,2D,4 [|] 
[V:1] B2ABAGG2 [|] 
[V:2] G2F2_E2C2 [|] 
[V:3] B,2D2CB,A,G, [|] 
[V:4] G,2D,2E,2E,2 [|] 
[V:1] G2^F2G2B2 [|] 
[V:2] D2D4G2 [|] 
[V:3] A,2A,2G,2G,2 [|] 
[V:4] D,2D,2G,,2G,2 [|] 
[V:1] c2_e2d3c [|] 
[V:2] G2^FE^FG2^F [|] 
[V:3] C2>B,2A,G,A,2 [|] 
[V:4] _E,2C,2D,4 [|] 
[V:1] =B32 [|] 
[V:2] G32 [|] 
[V:3] G,32 [|] 
[V:4] G,32 [|] 


